X: 160235
T: P.J. Hernon's
S: Colm O'Donnell
Z: B.Black
R: reel
M: 4/4
L: 1/8
K: G
GFGB d2 gd | edBe dBAB | GFGB dedB | ABGE DGBA |
GFGB d2 gd | gdBA GABd | eged Bded | gedB AGED :|
degb abge | dBAB GABd | g2 ag gedg | eaag a2 ga |
bg g2 abge | dBAB GABd | egde Bdef | gedB AGED :|
